X:048 
T:Down the Banks With Mary (reel) 
B:CRE5.133 (Sios na Bruacha le MÃÂÃÂÃÂÃÂ¡ire)
F:file ID: cre.5/048down_b
M:4/4
Q:180
R:reel
K:G
dc|Bddg e2dc|BGAF GFED|Bddg e2dc|BGAF G2:|
ef|g2gf e2eg|fgaf gfed|g2gf eaag|fdef g2 ~g2|
Bb~b2 Aaaf|dfge dcBA|Bddg e2dc|BGAF G4|]

%%%

